X: 21290
T: Kelly's Cellars
R: reel
M: 4/4
K: Dmajor
|:A2 FA dcde|fded cAGF|E2 B,E GFGA|(3Bcd eA gefe|
(3ded AG FAde|fded cA (3ABA|afge fded|dAGE FD D2:|
|:agag fd (3ddd|Ad (3dcd fgaf|gfed cA (3ABA|eAfA gbag|
fgag fd (3ddd|Ad (3ddd efge|(3fed ed ceag|fdec Adde:|
|:(3fgf df Afdf|eAce g3 a|fded cAGE|FAdf efge|
(3fgf df afef|eAce gece|(3fed ed ceag|fdec Ad d2:|

